school/img/menu/4.svg

<svg width="60" height="60" viewBox="0 0 60 60" fill="none" xmlns="http://www.w3.org/2000/svg">
<path d="M8.9261 0.0308189C8.18726 0.127026 7.0413 0.501167 6.36779 0.859272C5.061 1.5541 3.92006 2.66583 3.39734 3.74549L3.29179 3.95928L3.6386 4.29066L3.9854 4.62739L3.70896 4.87325C3.55818 5.01222 3.2365 5.33825 2.99525 5.60015C1.28636 7.44412 0.271076 9.76379 0.0348471 12.34C-0.0304928 13.0669 -0.000335944 14.51 0.0951609 15.1728C0.150449 15.579 0.155475 15.5897 0.39673 15.7767C0.622907 15.9531 0.728456 16.0654 0.582697 15.9798C0.547514 15.9585 0.688246 16.1295 0.894319 16.354C1.10039 16.5731 1.62814 17.0435 2.07044 17.3855C6.00089 20.4749 7.35795 21.5759 8.58433 22.6609C11.3437 25.1142 13.4446 27.1613 15.9677 29.8711C16.6563 30.6087 17.0735 31.0256 17.1187 31.0042C17.174 30.9828 17.174 31.0096 17.1087 31.1111L17.0232 31.2501L17.7721 32.0892C18.1893 32.5489 18.5864 33.0085 18.6618 33.1047L18.7975 33.2811L18.6316 33.7728C18.1591 35.1785 17.2293 36.7232 16.1236 37.9472C15.048 39.1444 13.8216 40.1225 11.2733 41.8275C10.5546 42.3086 9.70516 42.8805 9.38851 43.0996C8.76024 43.5325 7.52381 44.4572 7.54391 44.4786C7.54894 44.4893 7.64444 44.4732 7.75501 44.4465C8.17721 44.3449 12.5952 43.4844 12.6605 43.4898C12.7007 43.4951 12.6756 43.5165 12.6052 43.5379C12.4796 43.5806 12.4796 43.5806 12.5952 43.586C12.8214 43.5967 13.2335 43.8211 13.4245 44.0296C13.525 44.1525 13.6105 44.2167 13.6105 44.1793C13.6105 44.1365 13.6205 44.1205 13.6356 44.1365C13.6658 44.1632 13.3893 45.0718 12.5349 47.7496C12.2132 48.7598 11.9518 49.5989 11.9518 49.615C11.9518 49.6257 12.0725 49.5669 12.2182 49.4813C12.8063 49.1286 13.9774 48.5086 13.8668 48.6048L13.7412 48.7117L13.8668 48.7331C14.098 48.7705 14.5252 48.6636 14.8318 48.4979C15.9929 47.8779 18.4205 46.1248 19.7675 44.9275C20.0188 44.7084 21.3608 43.2599 21.5769 42.9767C21.783 42.7094 21.8433 42.6239 22.4263 41.7367C23.0144 40.8441 23.3713 40.5715 23.9643 40.5715C24.467 40.5715 24.7685 40.7586 25.4471 41.4801C26.6383 42.7415 28.3874 45.2375 31.2774 49.7913C31.7147 50.4808 32.1922 51.2291 32.3329 51.4482C32.4736 51.6674 32.7702 52.127 32.9863 52.4638C34.0569 54.1207 35.238 55.8257 36.3086 57.2474C36.9921 58.156 37.5651 58.8295 37.4646 58.6103C37.4445 58.5676 37.4897 58.605 37.5701 58.7012C37.6556 58.8081 37.8415 58.9203 38.0627 59.0112C38.2587 59.086 38.3592 59.1395 38.2989 59.1234C38.1481 59.0914 38.1733 59.1181 38.4497 59.2838C39.3092 59.8076 40.2038 60 41.7318 60C44.9033 60 48.3261 58.7493 51.7841 56.3227C52.4375 55.8631 53.8096 54.8102 54.0509 54.575C54.0861 54.5483 54.2067 54.436 54.3223 54.3398C54.4379 54.2383 54.5635 54.126 54.5937 54.0939C54.6239 54.0672 54.7294 53.971 54.8249 53.8855C55.8402 53.0036 57.4083 51.3681 58.5191 50.0372C58.7956 49.7112 59.067 49.1713 59.1122 48.8774C59.1474 48.6369 59.0821 48.3162 59.0067 48.3322C58.9262 48.3536 58.9262 48.3589 59.0921 47.9688C59.4741 47.0708 59.841 45.6865 59.9566 44.6977C60.0471 43.8799 59.9918 42.3834 59.8309 41.587C59.6048 40.4486 59.7706 40.6356 58.2125 39.7537C52.7039 36.6377 47.4666 33.3987 43.2145 30.4804C42.3048 29.8551 40.3747 28.4921 40.2139 28.3585C40.1033 28.2676 40.1083 28.2623 40.7919 27.8507C42.6817 26.7016 43.9131 25.7342 45.24 24.3499C45.6522 23.9223 46.004 23.5802 46.0191 23.5909C46.0342 23.5962 46.0543 23.5642 46.0593 23.5161C46.0744 23.4092 46.2302 23.2221 46.2804 23.2542C46.3006 23.2649 46.3609 23.2275 46.4111 23.158C46.4915 23.0618 46.4915 23.0564 46.4212 23.1152C46.2603 23.2435 46.3307 23.0992 46.5418 22.8533C46.7227 22.6395 46.7328 22.6342 46.6122 22.8106C46.5368 22.9228 46.4966 23.0137 46.5167 23.0137C46.5368 23.0083 46.6222 22.9121 46.6976 22.7945C46.778 22.6716 46.8132 22.5914 46.778 22.6128C46.7429 22.6395 46.7278 22.6288 46.7429 22.5807C46.7579 22.538 46.7931 22.5112 46.8233 22.5166C46.8484 22.5219 46.9037 22.4899 46.9439 22.4364C47.0042 22.3562 46.9992 22.3509 46.9238 22.4204C46.8735 22.4578 46.8333 22.4685 46.8333 22.4364C46.8333 22.3562 46.964 22.26 47.0092 22.3081C47.0344 22.3295 47.0344 22.3188 47.0193 22.2814C46.9992 22.2493 47.1248 21.9874 47.2957 21.6988C47.6777 21.0521 48.2205 19.8495 48.4568 19.1333C48.6578 18.5186 48.8991 17.6154 48.8589 17.6154C48.8438 17.6154 47.9944 18.0804 46.969 18.6523C45.2099 19.625 44.089 20.2343 44.0539 20.2343C44.0488 20.2343 44.0589 20.0099 44.079 19.7373C44.0991 19.47 44.1594 18.4492 44.2197 17.4817C44.275 16.509 44.3705 15.0445 44.4208 14.2214C44.4761 13.3983 44.5213 12.666 44.5163 12.5912V12.4576L44.461 12.5912C43.4608 14.9804 42.9079 16.0707 41.9881 17.439C40.43 19.764 38.6306 21.4743 35.9014 23.2168L35.4039 23.5375L35.1224 23.3237C34.9716 23.2061 34.0719 22.5593 33.127 21.8912C31.4282 20.6887 30.7899 20.2023 29.9203 19.4486C29.6338 19.1974 29.4428 19.0692 29.3926 19.0852C29.3524 19.1066 29.2116 19.144 29.081 19.1761L28.8498 19.2349L28.1009 18.5454C22.2203 13.1097 17.2444 7.37998 13.2184 1.42048L12.6605 0.59203L12.2936 0.437027C11.5296 0.121681 11.0421 0.0254745 10.1173 0.00409698C9.64987 -0.00659561 9.11207 0.00409698 8.9261 0.0308189ZM12.8917 43.463C12.8767 43.4791 12.8314 43.4844 12.7962 43.4684C12.756 43.4524 12.7711 43.4363 12.8264 43.4363C12.8817 43.431 12.9118 43.447 12.8917 43.463ZM56.8354 51.6781C56.8354 51.6888 56.76 51.7636 56.6745 51.8545L56.5087 52.0095L56.6544 51.8331C56.7952 51.6727 56.8354 51.6353 56.8354 51.6781ZM56.3327 52.266C56.3327 52.2714 56.2121 52.3996 56.0714 52.5439L55.805 52.8112L56.0563 52.5279C56.2875 52.2714 56.3327 52.2232 56.3327 52.266ZM55.5286 53.0677C55.5286 53.0784 55.4331 53.18 55.3175 53.2922L55.1013 53.506L55.3024 53.2762C55.4833 53.0677 55.5286 53.025 55.5286 53.0677ZM55.0762 53.4953C55.0762 53.506 54.9908 53.5969 54.8902 53.6984L54.6992 53.8802L54.8701 53.677C55.036 53.4953 55.0762 53.4526 55.0762 53.4953ZM54.6741 53.8695C54.6741 53.8802 54.6239 53.9336 54.5635 53.9924L54.4479 54.0939L54.5434 53.971C54.6339 53.8588 54.6741 53.8267 54.6741 53.8695ZM54.4228 54.0833C54.4228 54.0939 54.3725 54.1474 54.3122 54.2062L54.1966 54.3077L54.2921 54.1848C54.3826 54.0726 54.4228 54.0405 54.4228 54.0833ZM54.1715 54.297C54.1715 54.3077 54.1212 54.3612 54.0609 54.42L53.9453 54.5215L54.0408 54.3986C54.1313 54.2864 54.1715 54.2543 54.1715 54.297ZM53.9202 54.5162C53.9202 54.5269 53.88 54.5696 53.8347 54.607C53.7543 54.6765 53.7493 54.6712 53.8146 54.5857C53.88 54.5002 53.9202 54.4734 53.9202 54.5162ZM38.5754 59.1769C38.5603 59.1929 38.515 59.1983 38.4799 59.1822C38.4397 59.1662 38.4547 59.1502 38.51 59.1502C38.5653 59.1448 38.5955 59.1609 38.5754 59.1769Z" fill="#0357ED"/>
</svg>

<svg width="60" height="60" fill="none" xmlns="http://www.w3.org/2000/svg"><path d="M8.926.03c-.739.097-1.885.471-2.558.83-1.307.694-2.448 1.806-2.97 2.885l-.106.214.347.332.346.336-.276.246c-.15.14-.473.465-.714.727C1.286 7.444.271 9.764.035 12.34c-.065.727-.035 2.17.06 2.833.055.406.06.417.302.604.226.176.331.288.186.203-.035-.021.105.15.311.374.206.22.734.69 1.176 1.032 3.93 3.089 5.288 4.19 6.514 5.275 2.76 2.453 4.86 4.5 7.384 7.21.688.738 1.105 1.155 1.15 1.133.056-.021.056.006-.01.107l-.085.14.75.838c.416.46.813.92.889 1.016l.136.176-.166.492c-.473 1.405-1.403 2.95-2.508 4.174-1.076 1.197-2.302 2.175-4.85 3.88-.72.482-1.569 1.053-1.885 1.273-.629.432-1.865 1.357-1.845 1.379.005.01.1-.006.211-.032.422-.102 4.84-.963 4.906-.957.04.005.015.026-.056.048-.125.043-.125.043-.01.048.226.01.638.235.83.444.1.123.185.187.185.15 0-.044.01-.06.026-.044.03.027-.247.936-1.101 3.614a99.248 99.248 0 00-.583 1.865c0 .01.12-.048.266-.134.588-.352 1.76-.972 1.649-.876l-.126.107.126.021c.231.038.658-.07.965-.235 1.16-.62 3.588-2.373 4.935-3.57.252-.22 1.594-1.668 1.81-1.951.206-.268.266-.353.85-1.24.587-.893.944-1.166 1.537-1.166.503 0 .805.188 1.483.91 1.191 1.26 2.94 3.756 5.83 8.31.438.69.915 1.438 1.056 1.657.14.22.437.679.653 1.016a84.248 84.248 0 003.323 4.783c.683.909 1.256 1.583 1.156 1.363-.02-.042.025-.005.105.091.086.107.272.22.493.31.196.075.296.128.236.112-.15-.032-.126-.005.15.16.86.525 1.755.717 3.283.717 3.171 0 6.594-1.25 10.052-3.677.654-.46 2.026-1.513 2.267-1.748.035-.027.156-.139.271-.235.116-.102.241-.214.272-.246l.23-.209c1.016-.881 2.584-2.517 3.695-3.848.277-.326.548-.866.593-1.16.035-.24-.03-.56-.105-.545-.08.022-.08.027.085-.363.382-.898.749-2.282.865-3.271.09-.818.035-2.315-.126-3.111-.226-1.138-.06-.951-1.619-1.833-5.508-3.116-10.745-6.355-14.998-9.274-.91-.625-2.84-1.988-3-2.122-.11-.09-.106-.096.578-.507 1.89-1.15 3.121-2.117 4.448-3.501.412-.428.764-.77.78-.76.014.006.034-.026.04-.074.014-.107.17-.294.22-.262.02.01.08-.027.131-.096.08-.096.08-.102.01-.043-.16.129-.09-.016.12-.262.182-.213.192-.219.071-.042-.075.112-.115.203-.095.203a.859.859 0 00.18-.22c.081-.122.116-.203.081-.181-.035.027-.05.016-.035-.032.015-.043.05-.07.08-.064.025.005.08-.027.12-.08.061-.08.056-.086-.02-.017-.05.038-.09.048-.09.016 0-.08.131-.176.176-.128.025.021.025.01.01-.027-.02-.032.106-.294.277-.582.382-.647.925-1.85 1.16-2.566.202-.614.443-1.518.403-1.518-.015 0-.865.465-1.89 1.037-1.76.973-2.88 1.582-2.915 1.582-.005 0 .005-.224.025-.497.02-.267.08-1.288.14-2.255.056-.973.151-2.438.202-3.26.055-.824.1-1.556.095-1.63v-.134l-.055.133c-1 2.39-1.553 3.48-2.473 4.848-1.558 2.325-3.357 4.035-6.087 5.778l-.497.32-.282-.213c-.15-.118-1.05-.765-1.995-1.433-1.699-1.202-2.337-1.689-3.207-2.442-.286-.252-.477-.38-.527-.364-.04.022-.181.059-.312.091l-.231.059-.75-.69C22.22 13.11 17.245 7.38 13.219 1.42l-.557-.828-.367-.155C11.53.122 11.042.025 10.117.004c-.467-.01-1.005 0-1.19.027zm3.966 43.433c-.015.016-.06.021-.096.005-.04-.016-.025-.032.03-.032.056-.005.086.011.066.027zm43.943 8.215c0 .01-.075.086-.16.177l-.166.155.145-.177c.141-.16.181-.198.181-.155zm-.502.588a5.6 5.6 0 01-.262.278l-.266.267.251-.283c.232-.257.277-.305.277-.262zm-.804.802c0 .01-.096.112-.212.224l-.216.214.201-.23c.181-.208.227-.251.227-.208zm-.453.427c0 .011-.085.102-.186.203l-.19.182.17-.203c.166-.182.206-.224.206-.182zm-.402.375a.64.64 0 01-.11.122l-.116.102.095-.123c.09-.112.131-.144.131-.101zm-.251.213a.64.64 0 01-.11.123l-.116.102.095-.123c.09-.112.13-.145.13-.102zm-.252.214c0 .01-.05.064-.11.123l-.116.102.096-.123c.09-.113.13-.145.13-.102zm-.25.22a.34.34 0 01-.086.09c-.08.07-.086.064-.02-.021.065-.086.105-.113.105-.07zm-15.346 4.66c-.015.016-.06.021-.095.005-.04-.016-.025-.032.03-.032.055-.005.086.01.065.027z" fill="#0357ED"/></svg>
